Qt/Resources/Icons/-Z.svg

<svg width="64" height="64" xmlns="http://www.w3.org/2000/svg" data-name="Layer 1">

 <g>
  <title>Layer 1</title>
  <path id="svg_1" fill="#00ff00" d="m24.57,18.2l-9.31,-14l-9.33,14l5,0l0,21.26l8.74,0l0,-21.26l4.9,0z"/>
  <path id="svg_2" fill="#6f6f59" d="m19.62,40.58l-8.74,0a1.12,1.12 0 0 1 -1.12,-1.12l0,-20.13l-3.83,0a1.13,1.13 0 0 1 -1,-0.6a1.11,1.11 0 0 1 0.07,-1.15l9.32,-14a1.14,1.14 0 0 1 0.94,-0.5l0,0a1.15,1.15 0 0 1 0.94,0.5l9.31,14.05a1.13,1.13 0 0 1 -0.94,1.75l-3.82,0l0,20.08a1.13,1.13 0 0 1 -1.13,1.12zm-7.62,-2.25l6.48,0l0,-20.13a1.14,1.14 0 0 1 1.13,-1.13l2.85,0l-7.2,-10.88l-7.26,10.88l2.85,0a1.14,1.14 0 0 1 1.15,1.13l0,20.13z"/>
  <path id="svg_3" fill="#ff0000" d="m45.82,58.79l14,-9.31l-14,-9.32l0,4.94l-21.25,0l0,8.74l21.25,0l0,4.95z"/>
  <path id="svg_4" fill="#6f6f59" d="m45.82,59.91a1.13,1.13 0 0 1 -1.13,-1.12l0,-3.79l-20.12,0a1.13,1.13 0 0 1 -1.13,-1.13l0,-8.77a1.12,1.12 0 0 1 1.13,-1.1l20.12,0l0,-3.84a1.12,1.12 0 0 1 1.75,-0.94l14.05,9.32a1.11,1.11 0 0 1 0.5,0.94a1.12,1.12 0 0 1 -0.5,0.94l-14.05,9.31a1.12,1.12 0 0 1 -0.62,0.18zm-20.13,-7.2l20.13,0a1.14,1.14 0 0 1 1.18,1.13l0,2.85l10.88,-7.21l-10.88,-7.22l0,2.84a1.13,1.13 0 0 1 -1.13,1.13l-20.18,0l0,6.48z"/>
  <rect id="svg_5" fill="#0000ff" height="18.46" width="18.46" y="39.46" x="5.93"/>
  <path id="svg_6" fill="#6f6f59" d="m24.39,59.05l-18.46,0a1.14,1.14 0 0 1 -1.13,-1.13l0,-18.46a1.13,1.13 0 0 1 1.13,-1.13l18.46,0a1.13,1.13 0 0 1 1.13,1.13l0,18.46a1.14,1.14 0 0 1 -1.13,1.13zm-17.33,-2.26l16.21,0l0,-16.21l-16.21,0l0,16.21z"/>
  <path id="svg_7" fill="#787878" d="m36.09,24.45l-7.48,0l0,-2.86l7.48,0l0,2.86z"/>
  <path id="svg_8" fill="#787878" d="m43.42,28.08l8.48,0l0,2.84l-12.84,0l0,-1.92l8.22,-13.7l-8.21,0l0,-2.86l12.62,0l0,1.85l-8.27,13.79z"/>
 </g>
</svg>

<svg id="Layer_1" data-name="Layer 1" xmlns="http://www.w3.org/2000/svg" viewBox="0 0 64 64"><path d="M24.57,18.2l-9.31-14L5.93,18.2h5V39.46h8.74V18.2Z" style="fill:#f3c017"/><path d="M19.62,40.58H10.88a1.12,1.12,0,0,1-1.12-1.12V19.33H5.93a1.13,1.13,0,0,1-1-.6A1.11,1.11,0,0,1,5,17.58l9.32-14a1.14,1.14,0,0,1,.94-.5h0a1.15,1.15,0,0,1,.94.5l9.31,14.05a1.13,1.13,0,0,1-.94,1.75H20.75V39.46A1.13,1.13,0,0,1,19.62,40.58ZM12,38.33h6.48V18.2a1.14,1.14,0,0,1,1.13-1.13h2.85L15.26,6.19,8,17.07h2.85A1.14,1.14,0,0,1,12,18.2Z" style="fill:#6f6f59"/><path d="M45.82,58.79l14-9.31-14-9.32V45.1H24.57v8.74H45.82Z" style="fill:#de4130"/><path d="M45.82,59.91a1.13,1.13,0,0,1-1.13-1.12V55H24.57a1.13,1.13,0,0,1-1.13-1.13V45.1A1.12,1.12,0,0,1,24.57,44H44.69V40.16a1.12,1.12,0,0,1,1.75-.94l14.05,9.32a1.11,1.11,0,0,1,.5.94,1.12,1.12,0,0,1-.5.94L46.44,59.73A1.12,1.12,0,0,1,45.82,59.91Zm-20.13-7.2H45.82A1.14,1.14,0,0,1,47,53.84v2.85l10.88-7.21L47,42.26V45.1a1.13,1.13,0,0,1-1.13,1.13H25.69Z" style="fill:#6f6f59"/><rect x="5.93" y="39.46" width="18.46" height="18.46" style="fill:#a7d28c"/><path d="M24.39,59.05H5.93A1.14,1.14,0,0,1,4.8,57.92V39.46a1.13,1.13,0,0,1,1.13-1.13H24.39a1.13,1.13,0,0,1,1.13,1.13V57.92A1.14,1.14,0,0,1,24.39,59.05ZM7.06,56.79H23.27V40.58H7.06Z" style="fill:#6f6f59"/><path d="M36.09,24.45H28.61V21.59h7.48Z" style="fill:#787878"/><path d="M43.42,28.08H51.9v2.84H39.06V29L47.28,15.3H39.07V12.44H51.69v1.85Z" style="fill:#787878"/></svg>
